X:1
T:Sanibel Island, 77.77 D
T:Sanibel Island, 77.77 D
T:Victoria Booth-Clibborn Demarest, 1921
T:Public Domain Courtesy of the Cyber Hymnal™
C:Victoria Booth-Clibborn Demarest, 1921
Z:Public Domain
Z:Courtesy of the Cyber Hymnal™
%%score ( 1 2 ) ( 3 4 )
L:1/8
Q:1/4=140
M:6/4
K:Eb
V:1 treble 
V:2 treble 
V:3 bass 
V:4 bass 
V:1
 [EG]4 [E^F]2 [EG]4 [B,E]2 | [CF]4 [C=E]2 [CF]6 | [DF]4 [DG]2 [DB]4 [DA]2 | [EG]4 [^Fc]2 [GB]6 | %4
 [EG]4 [E^F]2 [EG]4 [B,E]2 | [CF]4 [C=E]2 [CF]6 | [DF]4 [DG]2 [DB]4 [DG]2 | E4 [CE]2 [B,E]6 | %8
 [Ec]4 [=E=B]2 [_Ec]4 [Fd]2 | [Ee]4 [Fd]2 [Ee]6 | [Fd]4 [FB]2 [Ec]4 [Ec]2 | [DB]4 [AB]2 B6 | %12
"^a tempo" G4 [E^F]2 [EG]4 [B,E]2 | [CF]4 [C=E]2 [CF]6 | [DF]4 [DG]2 [DB]4 [DG]2 | %15
 [CE]4 [_CE]2 [B,E]6 |] %16
V:2
 x12 | x12 | x12 | x12 | x12 | x12 | x12 | E4 x8 | x12 | x12 | x12 | x6 G4 ^F2 | G4 x8 | x12 | %14
 x12 | x12 |] %16
V:3
 [E,B,]4 [E,=A,]2 [E,B,]4 [E,G,]2 | [E,A,]4 [E,G,]2 [E,A,]6 | [E,A,]4 [E,B,]2 [E,F,]4 [E,B,]2 | %3
 [E,B,]4 [E,=A,]2 [E,B,]6 | [E,B,]4 [E,=A,]2 [E,B,]4 [E,G,]2 | [E,A,]4 [E,G,]2 [E,A,]6 | %6
 [E,A,]4 [E,B,]2 [E,F,]4 [E,B,]2 | [E,G,]4 [E,A,]2 [E,G,]6 | A,2 [A,C]2 [A,D]2 [A,C]4 [A,=B,]2 | %9
 [G,C]4 [G,=B,]2 [C,C]6 | [F,B,]4 [F,D]2 [F,B,]4 [F,=A,]2 | [B,,B,]4 [B,,C]2 [B,,D]6 | %12
 (E2 B,2) [E,=A,]2 [E,B,]4 [E,G,]2 | A,4 [G,B,]2 [F,A,]6 | [B,,A,]4 [B,,G,]2 [B,,F,]4 [=B,,G,]2 | %15
 [C,G,]4 [A,,A,]2 [E,,E,G,]6 |] %16
V:4
 x12 | x12 | x12 | x12 | x12 | x12 | x12 | x12 | A,2 x10 | x12 | x12 | x12 | E,4 x8 | A,4 x8 | %14
 x12 | x12 |] %16

